X:1
T:Bärgbliämli-Juiz  Bb
T:Beat von Holzen-Gander
T:Dirigenten-Notiz: Edi Gasser
C:Unterwalden (CH)
%%partsbox
%P:ABC
R:Naturjodel
M:3/4
L:1/8
K:Bb
[P:A] FD| F2D2dc | d2B2BG | A2F2A2 | c4FE | F2E2FA | e2c2cA | B2F2B2 | d4 "*"FD | 
F2D2dc | d2B2BA | G2c2d2 | e4ee | f3e fe | d2B2Bd | c2F2Ac | B4z2 || 
M:3/4
[P:B] F>E|D2F2Bf | e>cA2E>D | C2EFf2 | d>cB2F>E | 
D2F2Bd | e2c2e>e | d2B2Ac | B4F>E | D2F2Bf | e>cA2E>D | 
C2EFf2 | d>cB2F>E | D2F2Bd | e2c2e>e | d2B2Ac | B4 || 
M:4/4
[P:C]  D2F2B3d | e>f ed c>B AG | E2F2A3 c | d>e dc B>A GF | 
D2F2B3d | e>d ef g>g fe | d3fd2c2 | B8 | D2F2B3d | 
e/e/e/e/ e>d c/c/c/B/ AG | E/E/E/z/ F/F/F/z/ A/A/A/z/ zc | d>e dc B/B/B/A/ GF | 
D2F2B3  d | e>d ef g>g fe | d3fd2c2 | B8 | D2F2B3d | e/e/e/e/ e>d c/c/c/B/ AG | 
E/E/E/z/ F/F/F/z/ A/A/A/z/ zc | d>e dc B/B/B/A/ GF | D2F2B3d | 
e>d ef g>g fe | d3fd2c2 | B6F2 | c2f2d2F2 | B6z2 |] 
W:
W:Reihenfolge: A - B - A bis * - C
W:
W:UJV-Naturjodelsammlung: Code-Nr: 66-01
W:http://www.naturjodler.ch/code 66.htm  (without AUDIO, Oct 2018)
W:notiert Edi Gasser. Angaben: Beat von Holzen 
%October 09, 2018

